X:12861
T:Pastor que tas nel monte
R:Tonada
C:Tradicional
S:Msica Tradicional Asturiana, (C) Tello & Tito. Asturies, 2001.
S:http://pagina.de/MusTradAst <telloytito@asturies.org>
A:Asturies
Z:Asturias, canciones
M:3/8
L:1/8
Q:3/8=70
K:C
|: E|A2 ^G|AcB|AGF|E2 F|A2 F|GBA|G3/2F/ E-|E z2|
|EGF|GAG|EFE|D3|DGF|GBA|^FGE|^F2 ^D|E3-|E z :|
